Flat-Remix-Dark/apps/scalable/brave.svg

<svg xmlns="http://www.w3.org/2000/svg" xmlns:xlink="http://www.w3.org/1999/xlink" width="384pt" height="384pt" version="1.1" viewBox="0 0 384 384">
 <defs>
  <filter id="alpha" width="100%" height="100%" x="0%" y="0%" filterUnits="objectBoundingBox">
   <feColorMatrix in="SourceGraphic" type="matrix" values="0 0 0 0 1 0 0 0 0 1 0 0 0 0 1 0 0 0 1 0"/>
  </filter>
  <mask id="mask1">
   <g filter="url(#alpha)">
    <rect width="384" height="384" x="0" y="0" style="fill:rgb(0%,0%,0%);fill-opacity:0.2"/>
   </g>
  </mask>
  <clipPath id="clip2">
   <rect width="384" height="384" x="0" y="0"/>
  </clipPath>
  <g id="surface8" clip-path="url(#clip2)">
   <path style="fill:rgb(0%,0%,0%)" d="M 205.8125 296.917969 C 216.523438 287.828125 219.550781 284.558594 232.847656 275.078125 C 240.328125 269.742188 241.507812 268.382812 240.285156 266.496094 C 239.308594 264.984375 216.371094 254.355469 204.832031 249.730469 C 192.695312 244.867188 191.421875 244.859375 179.644531 249.640625 C 169.089844 253.910156 146.53125 264.414062 144.539062 266.328125 C 142.480469 268.304688 143.515625 270.121094 148.703125 273.617188 C 159.390625 280.820312 169.023438 289.023438 178.679688 297.21875 C 192.609375 309.046875 191.527344 309.058594 205.8125 296.945312 Z M 149.820312 252.058594 C 164.308594 245.273438 166.472656 243.871094 177.546875 234.097656 C 186.855469 225.882812 188.578125 223.4375 187.253906 220.328125 C 186.804688 219.273438 179.808594 212.84375 171.707031 206.039062 C 152.558594 189.957031 153.363281 192.222656 160.648438 174.765625 C 164.976562 164.402344 166.105469 160.933594 166.089844 158.058594 C 166.066406 153.710938 164.449219 150.457031 161.199219 148.207031 C 159.882812 147.292969 148.3125 142.644531 135.488281 137.875 C 122.664062 133.105469 112.246094 128.886719 112.335938 128.5 C 112.542969 127.617188 126.683594 126.085938 136.949219 125.828125 L 144.714844 125.648438 L 158.988281 130.613281 C 171.445312 134.945312 173.402344 135.835938 174.335938 137.597656 C 174.925781 138.703125 175.398438 140.195312 175.386719 140.90625 C 175.378906 141.621094 173.070312 151.921875 170.257812 163.796875 C 165.332031 184.597656 165.195312 185.4375 166.476562 186.707031 C 168.507812 188.722656 188.417969 192.453125 194.632812 191.980469 C 201.734375 191.441406 216.238281 188.074219 217.707031 186.628906 C 218.890625 185.460938 218.664062 184.136719 213.839844 163.796875 C 211.023438 151.921875 208.714844 141.621094 208.703125 140.90625 C 208.695312 140.195312 209.171875 138.699219 209.765625 137.582031 C 210.699219 135.824219 212.539062 134.960938 223.632812 131.09375 C 241.515625 124.859375 241.152344 124.910156 257.402344 126.351562 C 264.980469 127.015625 271.484375 127.851562 271.855469 128.199219 C 272.253906 128.5625 271.792969 129.109375 270.746094 129.507812 C 269.765625 129.871094 259.308594 133.789062 247.511719 138.195312 C 235.714844 142.605469 224.828125 147.007812 223.3125 147.984375 C 219.753906 150.273438 218.027344 153.546875 218.003906 158.042969 C 217.992188 160.886719 219.109375 164.332031 223.320312 174.367188 C 226.253906 181.359375 228.652344 187.742188 228.652344 188.542969 C 228.652344 191.785156 226.226562 194.410156 212.765625 205.691406 C 205.03125 212.171875 198.164062 218.429688 197.507812 219.59375 C 196.851562 220.761719 196.476562 222.539062 196.671875 223.546875 C 197.011719 225.273438 206.277344 234.195312 215.710938 241.882812 C 219.671875 245.109375 243.671875 256.898438 247.515625 257.507812 C 250.738281 258.015625 254.179688 256.410156 259.808594 251.753906 C 265.332031 247.195312 268.625 242.632812 270.859375 236.433594 C 272.960938 230.621094 272.433594 226.703125 268.28125 217.285156 C 265.113281 210.097656 264.273438 206.148438 265.335938 203.453125 C 265.582031 202.835938 274.148438 194.753906 284.378906 185.496094 C 306.664062 165.328125 310.238281 161.714844 311.457031 158.113281 C 312.816406 154.113281 311.859375 148.84375 308.8125 143.542969 C 301.527344 130.867188 272.574219 89.789062 270.007812 89.789062 C 256.78125 91.933594 246.140625 97.894531 232.207031 100.089844 C 231.113281 100.089844 226.453125 98.957031 221.855469 97.5625 C 202.21875 91.625 195.847656 90.011719 192.046875 90.011719 C 188.242188 90.011719 181.875 91.628906 162.234375 97.5625 C 157.636719 98.957031 152.925781 100.089844 151.769531 100.089844 C 138.042969 98.035156 126.96875 91.980469 112.761719 90.246094 C 110.546875 91.714844 91.742188 119.515625 83.597656 131.261719 C 74.019531 145.078125 73.054688 146.851562 72.277344 152.113281 C 71.1875 159.472656 72.214844 160.710938 100.828125 186.554688 C 110.453125 195.246094 118.523438 202.855469 118.761719 203.464844 C 119.835938 206.1875 118.988281 210.296875 115.867188 217.492188 C 111.582031 227.375 111.195312 230.117188 113.265625 236.082031 C 115.515625 242.574219 119.328125 247.816406 125.089844 252.347656 C 130.445312 256.5625 132.515625 257.601562 135.675781 257.671875 C 136.808594 257.691406 143.171875 255.167969 149.820312 252.054688 Z M 149.820312 252.058594"/>
  </g>
  <mask id="mask2">
   <g filter="url(#alpha)">
    <rect width="384" height="384" x="0" y="0" style="fill:rgb(0%,0%,0%);fill-opacity:0.2"/>
   </g>
  </mask>
  <clipPath id="clip3">
   <rect width="384" height="384" x="0" y="0"/>
  </clipPath>
  <g id="surface11" clip-path="url(#clip3)">
   <path style="fill-rule:evenodd;fill:rgb(100.000%,100.000%,100.000%)" d="M 132.847656 24.003906 L 103.238281 59.367188 L 83.511719 56.15625 L 60.492188 78.660156 L 61.054688 84.121094 L 83.511719 62.15625 L 103.238281 65.367188 L 132.847656 30.007812 L 251.230469 30.007812 L 280.835938 65.367188 L 300.5625 62.15625 L 323.019531 84.121094 L 323.582031 78.660156 L 300.5625 56.15625 L 280.835938 59.367188 L 251.230469 24.003906 Z M 61.605469 95.621094 L 37.472656 136.527344 C 35.4375 140.503906 35.929688 143.097656 36.59375 144.613281 C 36.8125 143.957031 37.09375 143.269531 37.472656 142.527344 L 62.132812 100.730469 Z M 322.46875 95.621094 L 321.941406 100.730469 L 346.601562 142.527344 C 346.984375 143.269531 347.261719 143.957031 347.484375 144.613281 C 348.144531 143.097656 348.636719 140.5 346.601562 136.527344 Z M 322.46875 95.621094"/>
  </g>
 </defs>
 <g>
  <path style="fill-rule:evenodd;fill:rgb(99.215%,28.627%,28.627%)" d="M 132.839844 24.003906 L 103.242188 59.367188 L 83.511719 56.152344 L 60.488281 78.65625 L 62.132812 94.730469 L 37.46875 136.523438 C 34.179688 142.953125 37.46875 146.167969 37.46875 146.167969 L 76.933594 270.050781 C 80.222656 289.34375 99.953125 302.203125 99.953125 302.203125 L 182.171875 356.855469 C 182.171875 356.855469 188.75 360.070312 192.039062 360.070312 C 195.328125 360.070312 201.902344 356.855469 201.902344 356.855469 L 284.121094 302.203125 C 284.121094 302.203125 303.855469 289.34375 307.140625 270.050781 L 346.605469 146.167969 C 346.605469 146.167969 349.894531 142.953125 346.605469 136.523438 L 321.941406 94.730469 L 323.585938 78.65625 L 300.566406 56.152344 L 280.832031 59.367188 L 251.234375 24.003906 Z M 132.839844 24.003906"/>
  <use mask="url(#mask1)" xlink:href="#surface8"/>
  <path style="fill:rgb(100.000%,100.000%,100.000%)" d="M 205.8125 290.914062 C 216.523438 281.828125 219.550781 278.558594 232.847656 269.074219 C 240.328125 263.742188 241.507812 262.382812 240.285156 260.496094 C 239.308594 258.984375 216.371094 248.355469 204.832031 243.730469 C 192.695312 238.863281 191.421875 238.859375 179.644531 243.636719 C 169.089844 247.90625 146.53125 258.410156 144.539062 260.328125 C 142.480469 262.304688 143.515625 264.121094 148.703125 267.617188 C 159.390625 274.820312 169.023438 283.019531 178.679688 291.21875 C 192.609375 303.046875 191.527344 303.054688 205.8125 290.945312 Z M 149.820312 246.058594 C 164.308594 239.273438 166.472656 237.871094 177.546875 228.097656 C 186.855469 219.882812 188.578125 217.4375 187.253906 214.324219 C 186.804688 213.273438 179.808594 206.839844 171.707031 200.039062 C 152.558594 183.957031 153.363281 186.222656 160.648438 168.765625 C 164.976562 158.398438 166.105469 154.929688 166.089844 152.058594 C 166.066406 147.710938 164.449219 144.457031 161.199219 142.203125 C 159.882812 141.292969 148.3125 136.640625 135.488281 131.875 C 122.664062 127.105469 112.246094 122.886719 112.335938 122.5 C 112.542969 121.617188 126.683594 120.085938 136.949219 119.828125 L 144.714844 119.648438 L 158.988281 124.613281 C 171.445312 128.945312 173.402344 129.835938 174.335938 131.59375 C 174.925781 132.703125 175.398438 134.195312 175.386719 134.90625 C 175.378906 135.617188 173.070312 145.917969 170.257812 157.796875 C 165.332031 178.597656 165.195312 179.4375 166.476562 180.707031 C 168.507812 182.722656 188.417969 186.453125 194.632812 185.980469 C 201.734375 185.4375 216.238281 182.074219 217.707031 180.628906 C 218.890625 179.460938 218.664062 178.132812 213.839844 157.796875 C 211.023438 145.917969 208.714844 135.617188 208.703125 134.90625 C 208.695312 134.195312 209.171875 132.699219 209.765625 131.582031 C 210.699219 129.820312 212.539062 128.960938 223.632812 125.09375 C 241.515625 118.859375 241.152344 118.910156 257.402344 120.347656 C 264.980469 121.015625 271.484375 121.851562 271.855469 122.199219 C 272.253906 122.5625 271.792969 123.105469 270.746094 123.507812 C 269.765625 123.871094 259.308594 127.789062 247.511719 132.195312 C 235.714844 136.605469 224.828125 141.007812 223.3125 141.980469 C 219.753906 144.273438 218.027344 147.546875 218.003906 152.042969 C 217.992188 154.886719 219.109375 158.328125 223.320312 168.363281 C 226.253906 175.359375 228.652344 181.738281 228.652344 182.542969 C 228.652344 185.785156 226.226562 188.410156 212.765625 199.6875 C 205.03125 206.171875 198.164062 212.425781 197.507812 213.59375 C 196.851562 214.757812 196.476562 216.539062 196.671875 217.542969 C 197.011719 219.273438 206.277344 228.195312 215.710938 235.882812 C 219.671875 239.105469 243.671875 250.898438 247.515625 251.503906 C 250.738281 252.011719 254.179688 250.40625 259.808594 245.753906 C 265.332031 241.195312 268.625 236.632812 270.859375 230.433594 C 272.960938 224.621094 272.433594 220.703125 268.28125 211.28125 C 265.113281 204.09375 264.273438 200.148438 265.335938 197.453125 C 265.582031 196.835938 274.148438 188.753906 284.378906 179.496094 C 306.664062 159.328125 310.238281 155.714844 311.457031 152.113281 C 312.816406 148.109375 311.859375 142.84375 308.8125 137.542969 C 301.527344 124.867188 272.574219 83.789062 270.007812 83.789062 C 256.78125 85.929688 246.140625 91.894531 232.207031 94.089844 C 231.113281 94.089844 226.453125 92.953125 221.855469 91.5625 C 202.21875 85.625 195.847656 84.011719 192.046875 84.011719 C 188.242188 84.011719 181.875 85.628906 162.234375 91.5625 C 157.636719 92.953125 152.925781 94.089844 151.769531 94.089844 C 138.042969 92.035156 126.96875 85.980469 112.761719 84.242188 C 110.546875 85.714844 91.742188 113.515625 83.597656 125.261719 C 74.019531 139.074219 73.054688 140.851562 72.277344 146.113281 C 71.1875 153.472656 72.214844 154.710938 100.828125 180.554688 C 110.453125 189.246094 118.523438 196.855469 118.761719 197.460938 C 119.835938 200.183594 118.988281 204.296875 115.867188 211.492188 C 111.582031 221.371094 111.195312 224.117188 113.265625 230.082031 C 115.515625 236.570312 119.328125 241.816406 125.089844 246.347656 C 130.445312 250.558594 132.515625 251.597656 135.675781 251.667969 C 136.808594 251.691406 143.171875 249.164062 149.820312 246.054688 Z M 149.820312 246.058594"/>
  <use mask="url(#mask2)" xlink:href="#surface11"/>
 </g>
 <path style="fill:#ffffff;fill-rule:evenodd;opacity:0.3" d="M 177.07031 31.955078 L 137.60742 79.107422 L 111.29883 74.820312 L 80.601562 104.82617 L 81.53125 113.91602 L 111.29883 84.820312 L 137.60742 89.107422 L 177.07031 41.955078 L 334.92969 41.955078 L 374.39258 89.107422 L 400.70508 84.820312 L 430.46875 113.91602 L 431.39844 104.82617 L 400.70508 74.820312 L 374.39258 79.107422 L 334.92969 31.955078 L 177.07031 31.955078 z M 81.921875 127.73633 L 49.908203 181.98242 C 46.793876 188.07052 48.100655 191.95219 49.121094 193.7168 C 49.34687 193.15787 49.600731 192.58349 49.908203 191.98242 L 82.794922 136.25781 L 81.921875 127.73633 z M 430.07812 127.73633 L 429.20508 136.25781 L 462.0918 191.98242 C 462.39927 192.58349 462.65313 193.15787 462.87891 193.7168 C 463.89934 191.95219 465.20612 188.07052 462.0918 181.98242 L 430.07812 127.73633 z" transform="scale(0.75)"/>
 <path style="fill-rule:evenodd;opacity:0.3" d="M 81.53125 103.91602 L 80.601562 104.82617 L 81.921875 117.73633 L 82.794922 116.25781 L 81.53125 103.91602 z M 430.46875 103.91602 L 429.20508 116.25781 L 430.07812 117.73633 L 431.39844 104.82617 L 430.46875 103.91602 z M 49.121094 183.7168 C 46.126673 191.12971 49.908203 194.8418 49.908203 194.8418 L 102.5293 360.01758 C 106.91471 385.74144 133.2207 402.88867 133.2207 402.88867 L 242.8457 475.75781 C 242.8457 475.75781 251.61654 480.04492 256.00195 480.04492 C 260.38737 480.04492 269.1543 475.75781 269.1543 475.75781 L 378.7793 402.88867 C 378.7793 402.88867 405.0905 385.74144 409.4707 360.01758 L 462.0918 194.8418 C 462.0918 194.8418 465.87333 191.12972 462.87891 183.7168 C 462.46242 184.43701 462.0918 184.8418 462.0918 184.8418 L 409.4707 350.01758 C 405.0905 375.74158 378.7793 392.88867 378.7793 392.88867 L 269.1543 465.75781 C 269.1543 465.75781 260.38737 470.04492 256.00195 470.04492 C 251.61654 470.04492 242.8457 465.75781 242.8457 465.75781 L 133.2207 392.88867 C 133.2207 392.88867 106.91471 375.74158 102.5293 350.01758 L 49.908203 184.8418 C 49.908203 184.8418 49.537578 184.43701 49.121094 183.7168 z" transform="scale(0.75)"/>
</svg>

<svg width="512" height="512" version="1.1" viewBox="0 0 384 384" xmlns="http://www.w3.org/2000/svg"><defs><clipPath><rect width="384" height="384"/></clipPath><clipPath><rect width="384" height="384"/></clipPath></defs><path d="m132.84 24.004-29.598 35.363-19.73-3.2148-23.023 22.504 1.6445 16.074-24.664 41.793c-3.2891 6.4297 0 9.6445 0 9.6445l39.465 123.88c3.2891 19.293 23.02 32.152 23.02 32.152l82.219 54.652s6.5781 3.2148 9.8672 3.2148 9.8633-3.2148 9.8633-3.2148l82.219-54.652s19.734-12.859 23.02-32.152l39.465-123.88s3.2891-3.2148 0-9.6445l-24.664-41.793 1.6445-16.074-23.02-22.504-19.734 3.2148-29.598-35.363z" fill="#fd4747" fill-rule="evenodd"/><path d="m205.81 298.41c10.711-9.0859 13.738-12.355 27.035-21.84 7.4805-5.332 8.6602-6.6914 7.4375-8.5781-0.97657-1.5117-23.914-12.141-35.453-16.766-12.137-4.8672-13.41-4.8711-25.188-0.0937-10.555 4.2695-33.113 14.773-35.105 16.691-2.0586 1.9766-1.0234 3.793 4.1641 7.2891 10.688 7.2031 20.32 15.402 29.977 23.602 13.93 11.828 12.848 11.836 27.133-0.27344zm-55.992-44.855c14.488-6.7852 16.652-8.1875 27.727-17.961 9.3086-8.2148 11.031-10.66 9.707-13.773-0.44922-1.0508-7.4453-7.4844-15.547-14.285-19.148-16.082-18.344-13.816-11.059-31.273 4.3281-10.367 5.457-13.836 5.4414-16.707-0.0234-4.3476-1.6406-7.6016-4.8906-9.8555-1.3164-0.91015-12.887-5.5625-25.711-10.328-12.824-4.7695-23.242-8.9883-23.152-9.375 0.20703-0.88281 14.348-2.4141 24.613-2.6719l7.7656-0.17969 14.273 4.9648c12.457 4.332 14.414 5.2227 15.348 6.9805 0.58984 1.1094 1.0625 2.6016 1.0508 3.3125-8e-3 0.71094-2.3164 11.012-5.1289 22.891-4.9258 20.801-5.0625 21.641-3.7812 22.91 2.0312 2.0156 21.941 5.7461 28.156 5.2734 7.1016-0.54297 21.605-3.9062 23.074-5.3516 1.1836-1.168 0.95703-2.4961-3.8672-22.832-2.8164-11.879-5.125-22.18-5.1367-22.891-8e-3 -0.71094 0.46875-2.207 1.0625-3.3242 0.9336-1.7617 2.7734-2.6211 13.867-6.4883 17.883-6.2344 17.52-6.1836 33.77-4.7461 7.5781 0.66797 14.082 1.5039 14.453 1.8516 0.39844 0.36328-0.0625 0.90625-1.1094 1.3086-0.98047 0.36328-11.438 4.2812-23.234 8.6875-11.797 4.4102-22.684 8.8125-24.199 9.7852-3.5586 2.293-5.2852 5.5664-5.3086 10.062-0.0117 2.8438 1.1055 6.2852 5.3164 16.32 2.9336 6.9961 5.332 13.375 5.332 14.18 0 3.2422-2.4258 5.8672-15.887 17.145-7.7344 6.4844-14.602 12.738-15.258 13.906-0.65625 1.1641-1.0312 2.9453-0.83594 3.9492 0.33985 1.7305 9.6055 10.652 19.039 18.34 3.9609 3.2227 27.961 15.016 31.805 15.621 3.2227 0.50781 6.6641-1.0976 12.293-5.75 5.5234-4.5586 8.8164-9.1211 11.051-15.32 2.1016-5.8125 1.5742-9.7305-2.5781-19.152-3.168-7.1875-4.0078-11.133-2.9453-13.828 0.24609-0.61717 8.8125-8.6992 19.043-17.957 22.285-20.168 25.859-23.781 27.078-27.383 1.3594-4.0039 0.40235-9.2695-2.6445-14.57-7.2852-12.676-36.238-53.754-38.805-53.754-13.227 2.1406-23.867 8.1055-37.801 10.301-1.0938 0-5.7539-1.1367-10.352-2.5274-19.637-5.9375-26.008-7.5508-29.809-7.5508-3.8047 0-10.172 1.6172-29.812 7.5508-4.5976 1.3906-9.3086 2.5274-10.465 2.5274-13.727-2.0547-24.801-8.1094-39.008-9.8477-2.2148 1.4727-21.02 29.273-29.164 41.02-9.5781 13.812-10.543 15.59-11.32 20.852-1.0898 7.3594-0.0625 8.5977 28.551 34.441 9.625 8.6914 17.695 16.301 17.934 16.906 1.0742 2.7226 0.22656 6.8359-2.8945 14.031-4.2852 9.8789-4.6719 12.625-2.6016 18.59 2.25 6.4883 6.0625 11.734 11.824 16.266 5.3555 4.2109 7.4258 5.25 10.586 5.3203 1.1328 0.0234 7.4961-2.5039 14.145-5.6133z" opacity=".3"/><path d="m205.81 290.91c10.711-9.0859 13.738-12.355 27.035-21.84 7.4805-5.332 8.6602-6.6914 7.4375-8.5781-0.97657-1.5117-23.914-12.141-35.453-16.766-12.137-4.8672-13.41-4.8711-25.188-0.0937-10.555 4.2695-33.113 14.773-35.105 16.691-2.0586 1.9766-1.0234 3.793 4.1641 7.2891 10.688 7.2031 20.32 15.402 29.977 23.602 13.93 11.828 12.848 11.836 27.133-0.27344zm-55.992-44.855c14.488-6.7852 16.652-8.1875 27.727-17.961 9.3086-8.2148 11.031-10.66 9.707-13.773-0.44922-1.0508-7.4453-7.4844-15.547-14.285-19.148-16.082-18.344-13.816-11.059-31.273 4.3281-10.367 5.457-13.836 5.4414-16.707-0.0234-4.3476-1.6406-7.6016-4.8906-9.8555-1.3164-0.91015-12.887-5.5625-25.711-10.328-12.824-4.7695-23.242-8.9883-23.152-9.375 0.20703-0.88281 14.348-2.4141 24.613-2.6719l7.7656-0.17969 14.273 4.9648c12.457 4.332 14.414 5.2227 15.348 6.9805 0.58984 1.1094 1.0625 2.6016 1.0508 3.3125-8e-3 0.71094-2.3164 11.012-5.1289 22.891-4.9258 20.801-5.0625 21.641-3.7812 22.91 2.0312 2.0156 21.941 5.7461 28.156 5.2734 7.1016-0.54297 21.605-3.9062 23.074-5.3516 1.1836-1.168 0.95703-2.4961-3.8672-22.832-2.8164-11.879-5.125-22.18-5.1367-22.891-8e-3 -0.71094 0.46875-2.207 1.0625-3.3242 0.9336-1.7617 2.7734-2.6211 13.867-6.4883 17.883-6.2344 17.52-6.1836 33.77-4.7461 7.5781 0.66797 14.082 1.5039 14.453 1.8516 0.39844 0.36328-0.0625 0.90625-1.1094 1.3086-0.98047 0.36328-11.438 4.2812-23.234 8.6875-11.797 4.4102-22.684 8.8125-24.199 9.7852-3.5586 2.293-5.2852 5.5664-5.3086 10.062-0.0117 2.8438 1.1055 6.2852 5.3164 16.32 2.9336 6.9961 5.332 13.375 5.332 14.18 0 3.2422-2.4258 5.8672-15.887 17.145-7.7344 6.4844-14.602 12.738-15.258 13.906-0.65625 1.1641-1.0312 2.9453-0.83594 3.9492 0.33985 1.7305 9.6055 10.652 19.039 18.34 3.9609 3.2227 27.961 15.016 31.805 15.621 3.2227 0.50781 6.6641-1.0977 12.293-5.75 5.5234-4.5586 8.8164-9.1211 11.051-15.32 2.1016-5.8125 1.5742-9.7305-2.5781-19.152-3.168-7.1875-4.0078-11.133-2.9453-13.828 0.24609-0.61718 8.8125-8.6992 19.043-17.957 22.285-20.168 25.859-23.781 27.078-27.383 1.3594-4.0039 0.40234-9.2695-2.6445-14.57-7.2852-12.676-36.238-53.754-38.805-53.754-13.227 2.1406-23.867 8.1055-37.801 10.301-1.0938 0-5.7539-1.1367-10.352-2.5273-19.637-5.9375-26.008-7.5508-29.809-7.5508-3.8047 0-10.172 1.6172-29.812 7.5508-4.5976 1.3906-9.3086 2.5273-10.465 2.5273-13.727-2.0547-24.801-8.1094-39.008-9.8477-2.2148 1.4727-21.02 29.273-29.164 41.02-9.5781 13.812-10.543 15.59-11.32 20.852-1.0898 7.3594-0.0625 8.5977 28.551 34.441 9.625 8.6914 17.695 16.301 17.934 16.906 1.0742 2.7226 0.22656 6.8359-2.8945 14.031-4.2852 9.8789-4.6719 12.625-2.6016 18.59 2.25 6.4883 6.0625 11.734 11.824 16.266 5.3555 4.2109 7.4258 5.25 10.586 5.3203 1.1328 0.0234 7.4961-2.5039 14.145-5.6133z" fill="#fff"/><path transform="scale(.75)" d="m81.58 103.96-0.92969 0.91016 1.3203 12.91 0.87305-1.4785-1.2637-12.342zm348.94 0.00196-1.2617 12.34 0.87109 1.4766 1.3203-12.908-0.92969-0.9082zm-381.35 79.801c-2.9927 7.4114 0.78906 11.123 0.78906 11.123l52.619 165.18c4.3854 25.724 30.693 42.869 30.693 42.869l109.62 72.869s8.7708 4.2871 13.156 4.2871c4.3854 0 13.15-4.2871 13.15-4.2871l109.62-72.869s26.313-17.145 30.693-42.869l52.619-165.18s3.7818-3.7117 0.78907-11.123c-0.41644 0.72007-0.78907 1.123-0.78907 1.123l-52.619 165.18c-4.3802 25.724-30.693 42.869-30.693 42.869l-109.62 72.869c1e-5 0-8.765 4.2871-13.15 4.2871-4.3854 0-13.156-4.2871-13.156-4.2871l-109.62-72.869s-26.308-17.145-30.693-42.869l-52.619-165.18s-0.37263-0.40297-0.78906-1.123z" fill-rule="evenodd" opacity=".3" stroke-width="1.3333"/><path transform="scale(.75)" d="m177.12 32.006-39.463 47.15-26.307-4.2871-30.699 30.006 0.92969 9.0898 29.77-29.096 26.307 4.2871 39.463-47.15h157.86l39.465 47.15 26.312-4.2871 29.762 29.098 0.92969-9.0918-30.691-30.006-26.312 4.2871-39.465-47.15h-157.86zm253.01 95.777-0.87109 8.5234 32.885 55.725c0.30791 0.6019 0.56308 1.1767 0.78907 1.7363 1.0204-1.7645 2.3254-5.648-0.78907-11.736l-32.014-54.248zm-348.16 0.00196-32.012 54.246c-3.1145 6.0883-1.8095 9.9718-0.78906 11.736 0.22598-0.55965 0.48116-1.1344 0.78906-1.7363l32.885-55.725-0.87305-8.5215z" fill="#fff" fill-rule="evenodd" opacity=".3" stroke-width="1.3333"/></svg>
